src/icons/search-applications.svg

<?xml version="1.0" encoding="UTF-8"?>
<svg width="38px" height="38px" viewBox="0 0 38 38" version="1.1" xmlns="http://www.w3.org/2000/svg" xmlns:xlink="http://www.w3.org/1999/xlink">
    <!-- Generator: Sketch 59 (86127) - https://sketch.com -->
    <title>HDL/Icon/Standard/Search/applications</title>
    <desc>Created with Sketch.</desc>
    <g id="Colors" stroke="none" stroke-width="1" fill="none" fill-rule="evenodd">
        <g id="Search-Icons" transform="translate(-100.000000, -194.000000)">
            <g id="HDL/Icon/Standard/Search/applications" transform="translate(101.000000, 195.000000)">
                <g id="Applications">
                    <circle id="Oval" stroke="#D4ECFC" fill="#F7FCFF" cx="18" cy="18" r="18"></circle>
                    <path d="M9,10 L9,26.5 L27,26.5 L27,10 L9,10 Z M10.5,11.5 L25.5,11.5 L25.5,13 L10.5,13 L10.5,11.5 Z M10.5,14.5 L25.5,14.5 L25.5,25 L10.5,25 L10.5,14.5 Z M18,16 L16.5,23.5 L18,23.5 L19.5,16 L18,16 Z M14.4,16.3 L12.15,19.3 L11.8125,19.75 L12.15,20.2 L14.4,23.2 L15.6,22.3 L13.6875,19.75 L15.6,17.2 L14.4,16.3 Z M21.6,16.3 L20.4,17.2 L22.3125,19.75 L20.4,22.3 L21.6,23.2 L23.85,20.2 L24.1875,19.75 L23.85,19.3 L21.6,16.3 Z" id="Shape" fill="#25A6F7" fill-rule="nonzero"></path>
                </g>
            </g>
        </g>
    </g>
</svg>

<?xml version="1.0" encoding="utf-8"?>
<!-- Generator: Adobe Illustrator 20.1.0, SVG Export Plug-In . SVG Version: 6.00 Build 0)  -->
<svg version="1.1" id="Layer_1" xmlns="http://www.w3.org/2000/svg" xmlns:xlink="http://www.w3.org/1999/xlink" x="0px" y="0px"
	 viewBox="0 0 38 38" style="enable-background:new 0 0 38 38;" xml:space="preserve">
<style type="text/css">
	.st0{fill:#F7FCFF;stroke:#D4ECFC;}
	.st1{fill:#25A6F7;}
</style>
<title>HDL/Icon/Standard/Search/applications</title>
<desc>Created with Sketch.</desc>
<g id="Colors">
	<g id="Search-Icons" transform="translate(-100.000000, -194.000000)">
		<g id="HDL_x2F_Icon_x2F_Standard_x2F_Search_x2F_applications" transform="translate(101.000000, 195.000000)">
			<g id="Applications">
				<circle id="Oval" class="st0" cx="18" cy="18" r="18"/>
				<path id="Shape" class="st1" d="M9,10v16.5h18V10H9z M10.5,11.5h15V13h-15V11.5z M10.5,14.5h15V25h-15V14.5z M18,16l-1.5,7.5H18
					l1.5-7.5H18z M14.4,16.3l-2.2,3l-0.3,0.5l0.3,0.5l2.2,3l1.2-0.9l-1.9-2.5l1.9-2.5L14.4,16.3z M21.6,16.3l-1.2,0.9l1.9,2.5
					l-1.9,2.5l1.2,0.9l2.2-3l0.3-0.5l-0.3-0.5L21.6,16.3z"/>
			</g>
		</g>
	</g>
</g>
</svg>
